public/img/c2c-mark.svg

<svg width="110" height="80" viewBox="0 0 110 80" fill="none" xmlns="http://www.w3.org/2000/svg">
<g clip-path="url(#clip0_22_9224)">
<path d="M30.9505 29.0574L80.9045 14.5177L69.8027 31.2793C66.3518 27.9479 62.3032 25.2222 56.7895 26.9595C53.6416 27.9534 51.2813 29.8806 49.9291 33.1019C51.3997 33.0221 52.73 32.8073 54.0354 32.9064C57.0484 33.1404 59.5905 34.6244 61.8516 36.4856C65.5311 39.5141 69.0811 42.672 72.9616 46.0117C73.3417 45.428 73.9256 44.8306 74.1707 44.1147C77.1837 35.3871 80.5244 26.8136 85.0136 18.7301C89.0346 11.4644 94.7301 5.63863 101.009 0.33044C101.164 0.20418 101.334 0.0986629 101.516 0.0165747C101.585 -0.0164639 101.692 0.0441084 101.695 0.0441084L95.3608 9.81525L95.7353 10.2447C97.1124 9.87857 98.4894 9.60325 99.8252 9.1297C105.256 7.18318 110.203 11.9435 109.699 17.4857C108.938 25.8692 108.495 34.2803 107.922 42.6831C107.798 44.4837 107.815 46.3035 107.564 48.0849C107.102 51.3887 105.336 53.7042 102.078 54.7339C101.219 55.0092 100.351 55.2597 99.4699 55.4497C97.6907 55.8296 96.22 56.4298 95.1652 58.1864C94.0636 60.031 91.5656 60.5927 89.5276 59.9457C87.0654 59.161 85.7131 57.3714 85.3964 54.8935C85.0907 52.4735 85.9693 50.4141 88.0238 49.0402C89.9379 47.76 91.9594 47.7435 93.9837 48.9218C94.3511 49.1521 94.7883 49.2447 95.2175 49.1834C96.9939 48.7319 98.7483 48.1867 100.519 47.6746C98.4977 43.0713 92.2018 40.7916 87.0929 42.7189C80.4831 45.2408 78.3018 51.8568 81.2047 60.6147C78.2798 61.4599 75.3467 62.2666 72.4411 63.1725C71.855 63.368 71.3491 63.7499 71.0007 64.26C69.2243 67.0875 66.0681 68.0676 63.3608 66.5424C60.4966 64.929 59.5051 61.1516 61.1575 58.1451C62.7439 55.2597 65.9056 54.3814 68.9048 55.9728C69.2381 56.149 69.6677 56.4051 69.9789 56.328C71.8545 55.8517 73.7107 55.29 75.6028 54.7476C73.0085 49.8414 66.7539 47.771 61.623 50.0176C55.3739 52.7516 53.2918 59.4694 56.2167 67.6795C53.6884 68.4669 51.1409 69.6783 48.5382 68.3843C47.1254 67.6822 45.685 66.5617 44.845 65.2539C35.6959 51.017 26.6679 36.7003 17.5986 22.4139C16.1307 20.104 16.7311 20.4536 14.2496 21.2851C11.3578 22.2515 8.51009 23.3776 5.57146 24.1705C2.58325 24.9799 0.696693 23.8511 0.104561 21.2851C-0.261735 19.669 0.264298 18.3392 1.61656 17.5105C3.02376 16.6497 4.50601 15.918 6.04517 15.3244C8.7497 14.2782 11.5121 13.3972 14.2496 12.4253C17.9649 11.1203 21.2781 12.2546 23.2859 15.6741C25.7453 19.8617 28.0973 24.1099 30.4989 28.3388C30.6283 28.5453 30.766 28.7463 30.9505 29.0574Z" fill="#231F20"/>
<path d="M70.5298 72.2855C72.2787 71.7596 73.9367 71.22 75.6249 70.7905C75.9251 70.7162 76.4512 70.9998 76.6825 71.2778C78.2248 73.1831 80.1582 74.0311 82.5377 73.3372C84.9724 72.6407 86.1181 70.7988 86.5615 68.3815C86.6053 68.168 86.6957 67.9668 86.8261 67.7921C86.9565 67.6175 87.1238 67.4737 87.3161 67.371C88.9686 66.8204 90.6568 66.3634 92.3368 65.8733C93.7139 71.6192 89.7232 78.0975 83.9258 79.6393C78.3377 81.1371 72.0749 77.7754 70.5298 72.2855Z" fill="#231F20"/>
</g>
<defs>
<clipPath id="clip0_22_9224">
<rect width="109.735" height="80" fill="white"/>
</clipPath>
</defs>
</svg>

<?xml version="1.0" encoding="utf-8"?>
<!-- Generator: Adobe Illustrator 28.0.0, SVG Export Plug-In . SVG Version: 6.00 Build 0)  -->
<svg version="1.1" id="Layer_1" xmlns="http://www.w3.org/2000/svg" xmlns:xlink="http://www.w3.org/1999/xlink" x="0px" y="0px"
	 viewBox="0 0 110 80" style="enable-background:new 0 0 110 80;" xml:space="preserve">
<style type="text/css">
	.st0{clip-path:url(#SVGID_00000137126294751672091910000010667834735580543917_);}
	.st1{fill:#F26B21;}
</style>
<g>
	<defs>
		<rect id="SVGID_1_" width="109.7" height="80"/>
	</defs>
	<clipPath id="SVGID_00000089552567705057068120000012327330990461784977_">
		<use xlink:href="#SVGID_1_"  style="overflow:visible;"/>
	</clipPath>
	<g style="clip-path:url(#SVGID_00000089552567705057068120000012327330990461784977_);">
		<path class="st1" d="M31,29.1l50-14.5L69.8,31.3c-3.5-3.3-7.5-6.1-13-4.3c-3.1,1-5.5,2.9-6.9,6.1c1.5-0.1,2.8-0.3,4.1-0.2
			c3,0.2,5.6,1.7,7.8,3.6c3.7,3,7.2,6.2,11.1,9.5c0.4-0.6,1-1.2,1.2-1.9c3-8.7,6.4-17.3,10.8-25.4c4-7.3,9.7-13.1,16-18.4
			c0.2-0.1,0.3-0.2,0.5-0.3c0.1,0,0.2,0,0.2,0l-6.3,9.8l0.4,0.4c1.4-0.4,2.8-0.6,4.1-1.1c5.4-1.9,10.4,2.8,9.9,8.4
			c-0.8,8.4-1.2,16.8-1.8,25.2c-0.1,1.8-0.1,3.6-0.4,5.4c-0.5,3.3-2.2,5.6-5.5,6.6c-0.9,0.3-1.7,0.5-2.6,0.7c-1.8,0.4-3.2,1-4.3,2.7
			c-1.1,1.8-3.6,2.4-5.6,1.8c-2.5-0.8-3.8-2.6-4.1-5.1C85.1,52.5,86,50.4,88,49c1.9-1.3,3.9-1.3,6-0.1c0.4,0.2,0.8,0.3,1.2,0.3
			c1.8-0.5,3.5-1,5.3-1.5c-2-4.6-8.3-6.9-13.4-5c-6.6,2.5-8.8,9.1-5.9,17.9c-2.9,0.8-5.9,1.7-8.8,2.6c-0.6,0.2-1.1,0.6-1.4,1.1
			c-1.8,2.8-4.9,3.8-7.6,2.3c-2.9-1.6-3.9-5.4-2.2-8.4c1.6-2.9,4.7-3.8,7.7-2.2c0.3,0.2,0.8,0.4,1.1,0.4c1.9-0.5,3.7-1,5.6-1.6
			c-2.6-4.9-8.8-7-14-4.7c-6.2,2.7-8.3,9.5-5.4,17.7c-2.5,0.8-5.1,2-7.7,0.7c-1.4-0.7-2.9-1.8-3.7-3.1C35.7,51,26.7,36.7,17.6,22.4
			c-1.5-2.3-0.9-2-3.3-1.1c-2.9,1-5.7,2.1-8.7,2.9c-3,0.8-4.9-0.3-5.5-2.9c-0.4-1.6,0.2-2.9,1.5-3.8C3,16.6,4.5,15.9,6,15.3
			c2.7-1,5.5-1.9,8.2-2.9c3.7-1.3,7-0.2,9,3.2c2.5,4.2,4.8,8.4,7.2,12.7C30.6,28.5,30.8,28.7,31,29.1z"/>
		<path class="st1" d="M70.5,72.3c1.7-0.5,3.4-1.1,5.1-1.5c0.3-0.1,0.8,0.2,1.1,0.5c1.5,1.9,3.5,2.8,5.9,2.1c2.4-0.7,3.6-2.5,4-5
			c0-0.2,0.1-0.4,0.3-0.6c0.1-0.2,0.3-0.3,0.5-0.4c1.7-0.6,3.3-1,5-1.5c1.4,5.7-2.6,12.2-8.4,13.8C78.3,81.1,72.1,77.8,70.5,72.3z"
			/>
	</g>
</g>
</svg>
